dist/img/program-icon-4.svg

<svg width="92" height="114" viewBox="0 0 92 114" fill="none" xmlns="http://www.w3.org/2000/svg">
<path d="M38.7957 0.29811C34.5707 1.63447 32.1941 5.99991 33.3164 10.4099C33.8445 12.5481 34.9008 14.3076 36.8152 16.379L38.5536 18.2276H34.8128C32.7443 18.2276 30.8078 18.3167 30.4997 18.4503C30.1917 18.5617 29.5535 19.0294 29.0694 19.4749C27.5951 20.8112 27.507 21.368 27.507 30.0766V37.6048H25.2405C23.26 37.6048 22.8199 37.6716 21.8737 38.1616C20.6854 38.763 20.0253 39.498 19.6292 40.7007C19.4531 41.2352 19.3651 43.9748 19.3651 49.6543V57.8284L16.5264 57.9175C13.7758 57.9843 13.6438 58.0066 12.7416 58.6525C12.2354 59.0088 11.5753 59.7661 11.2892 60.3006L10.7831 61.2806V81.2592H7.54833C4.8637 81.2592 4.13753 81.3483 3.41136 81.6824C0.682714 82.9297 -0.593587 85.7805 0.264615 88.6983C0.440657 89.2551 0.968781 90.0569 1.65094 90.7696C3.52138 92.7074 2.48714 92.6183 22.952 92.6183H40.7762L40.6441 94.3778C40.4021 98.0973 38.1355 100.971 34.6587 101.951C34.1746 102.084 31.9081 102.396 29.6415 102.619C25.9007 102.997 25.3505 103.109 24.0962 103.732C21.5876 104.98 19.9152 107.474 19.6732 110.258C19.5412 111.884 19.9593 112.797 21.1695 113.555C21.8737 114 22.3358 114 45.9914 114C69.647 114 70.1091 114 70.8132 113.555C72.0235 112.797 72.4416 111.884 72.3096 110.258C72.0235 106.895 69.5809 103.977 66.3462 103.109C65.8621 102.997 63.7496 102.73 61.6591 102.53C59.5686 102.329 57.4341 102.017 56.928 101.839C53.5612 100.636 51.5147 97.9192 51.3166 94.3555L51.2066 92.6183H69.0308C89.4956 92.6183 88.4614 92.7074 90.3318 90.7696C93.1485 87.8296 92.2903 83.3974 88.5714 81.6824C87.8452 81.3483 87.1191 81.2592 84.4564 81.2592H81.1997V61.2806L80.6936 60.3006C80.4075 59.7661 79.7473 59.0088 79.2412 58.6525C78.339 58.0066 78.207 57.9843 75.4563 57.9175L72.6177 57.8284V41.213L72.0015 40.0325C71.5174 39.0748 71.1653 38.7184 70.2191 38.2284C69.1628 37.6716 68.8328 37.6048 66.7643 37.6048H64.4757V30.0766C64.4757 21.368 64.3877 20.8112 62.9134 19.4749C62.4293 19.0294 61.7911 18.5617 61.483 18.4503C61.175 18.3167 59.2385 18.2276 57.17 18.2276H53.4291L55.1675 16.379C56.1138 15.3544 57.214 13.9067 57.5881 13.1717C60.2067 8.22717 58.8644 3.03765 54.3754 0.788108C53.055 0.142202 52.747 0.0753836 50.9426 0.0753836C48.9181 0.0976562 48.522 0.209019 46.5415 1.41174C45.8814 1.79038 45.8594 1.79038 45.0232 1.21129C43.3068 0.0531109 40.7542 -0.325524 38.7957 0.29811ZM42.3825 3.52764C42.6906 3.66128 43.4168 4.15128 43.9669 4.64128C44.7591 5.354 45.1332 5.53218 45.8153 5.53218C46.7616 5.53218 47.8618 5.06446 48.0379 4.57446C48.1039 4.39628 48.61 4.01764 49.1821 3.75037C51.1846 2.77037 53.6272 3.54992 54.9475 5.57673C55.4976 6.37854 55.5636 6.71263 55.5416 8.18263C55.5416 9.58581 55.4316 10.0981 54.8815 11.2117C54.0233 12.9935 51.4487 15.5994 49.0721 17.0694C47.4217 18.094 47.0916 18.2276 45.9914 18.2276C44.8911 18.2276 44.561 18.094 42.9107 17.0694C40.5121 15.5771 37.9155 12.9712 37.1013 11.2563C35.913 8.67263 36.1331 6.37854 37.7394 4.75264C38.9937 3.46083 40.9082 2.97083 42.3825 3.52764ZM60.8229 22.0585C61.1089 22.4594 61.175 23.3058 61.175 26.7358C61.175 29.0521 61.1309 30.923 61.0429 30.923C60.9769 30.923 60.3388 30.5221 59.6126 30.0098C55.9157 27.4707 53.2091 27.4039 49.6442 29.7426C46.7836 31.6135 45.5953 31.6135 42.8666 29.8094C39.3238 27.4485 36.5292 27.493 32.5682 29.9207C31.8641 30.3439 31.1819 30.7003 31.0499 30.7003C30.8738 30.7003 30.8078 29.4753 30.8078 26.6244C30.8078 23.3058 30.8738 22.4594 31.1599 22.0585L31.49 21.5685H60.4928L60.8229 22.0585ZM41.1722 32.7048C43.1307 34.0189 44.451 34.4866 46.2114 34.4866C47.9718 34.4866 49.1821 34.0635 51.1406 32.7494C53.8032 30.9676 55.1235 30.9676 57.6761 32.7271C58.4463 33.2394 59.5026 33.8407 60.0527 34.0635L61.0649 34.4421L61.197 37.6048H41.7884L41.2603 38.1616C40.5561 38.8521 40.5561 39.6984 41.2603 40.3889L41.7884 40.9457H55.1455C67.2704 40.9457 68.5467 40.9902 68.9208 41.3243C69.2729 41.6362 69.3169 42.0593 69.3169 44.8657V48.0284L68.6567 48.1843C68.3046 48.2511 67.4024 48.7411 66.6322 49.2311C63.1774 51.5029 61.9671 51.5252 58.7764 49.3202C57.17 48.2289 55.5196 47.7611 53.7152 47.917C52.0208 48.073 51.1626 48.407 49.5342 49.5207C46.7396 51.4807 45.4853 51.4584 42.5366 49.4761C40.6221 48.162 39.962 47.9616 37.7394 47.9616C35.6049 47.9616 35.2749 48.0952 32.1501 50.0998C31.0939 50.7679 30.7858 50.857 29.4875 50.857C28.1232 50.857 27.9031 50.7902 26.1647 49.7211C25.1525 49.0975 23.9422 48.4516 23.5021 48.2957L22.6659 48.0284V44.9102C22.6659 42.2821 22.7319 41.6807 23.04 41.3466C23.3701 40.968 23.8542 40.9457 29.3115 40.9457H35.2308L35.759 40.3889C36.067 40.0993 36.3091 39.5871 36.3091 39.2753C36.3091 38.9634 36.067 38.4512 35.759 38.1616C35.2749 37.6493 35.0768 37.6048 33.0083 37.6048H30.8078V34.5312L31.754 34.1525C32.2601 33.9521 33.3824 33.3507 34.2186 32.8162C37.1453 30.9898 38.5316 30.9676 41.1722 32.7048ZM41.1502 52.5275C44.7811 54.9552 47.4217 54.9329 51.0746 52.5275C53.7592 50.7234 54.9255 50.7457 57.7642 52.6388C59.7226 53.9529 61.263 54.3984 63.1774 54.2425C64.8718 54.0866 65.8401 53.7302 67.6885 52.5275C68.4147 52.0375 69.0748 51.6366 69.1628 51.6366C69.2509 51.6366 69.3169 53.0397 69.3169 54.7547V57.8729H22.6659V54.7547C22.6659 53.0397 22.7319 51.6366 22.8419 51.6366C22.93 51.6366 23.7441 52.1043 24.6464 52.6388C28.2772 54.8661 31.0059 54.8884 34.2626 52.7057C36.2211 51.4138 36.8812 51.1911 38.2456 51.3025C39.2138 51.3693 39.7419 51.592 41.1502 52.5275ZM77.5468 61.5702C77.8329 61.8597 77.8989 62.5947 77.8989 66.047V70.1674L76.8206 69.3879C74.8182 67.9179 73.982 67.6061 71.9575 67.4947C69.5589 67.3833 68.7007 67.6283 66.4122 69.1206C63.4415 71.0583 62.3852 71.0361 59.2165 68.9424C57.3241 67.6729 56.6199 67.4502 54.5734 67.4502C52.5049 67.4502 51.6467 67.7397 49.4682 69.1874C46.7396 70.9692 45.4633 70.9692 42.7566 69.1874C40.5561 67.7397 39.7199 67.4502 37.6294 67.4502C35.5609 67.4502 34.7027 67.7397 32.5242 69.1874C29.7736 70.9915 28.5193 70.9915 25.7246 69.0983C23.6121 67.6729 22.9079 67.4502 20.5754 67.4502C18.6169 67.4502 17.2966 67.9402 15.4042 69.3433C14.832 69.7665 14.3039 70.1229 14.2159 70.1229C14.1499 70.1229 14.0839 68.2742 14.0839 66.0247C14.0839 62.5947 14.1499 61.8597 14.436 61.5702C14.744 61.2584 17.9128 61.2138 45.9914 61.2138C74.07 61.2138 77.2387 61.2584 77.5468 61.5702ZM22.6219 71.1029C22.952 71.2811 23.8762 71.8601 24.6904 72.417C26.4068 73.5974 28.0572 74.0206 29.9716 73.8201C31.6 73.6642 32.5242 73.2633 34.4167 71.9492C35.891 70.9247 35.957 70.9024 37.6074 70.9024C39.3018 70.9024 39.3238 70.9024 41.1282 72.1051C44.7371 74.5106 47.4657 74.5106 51.0746 72.1051C52.879 70.9024 52.901 70.9024 54.5954 70.9024C56.2458 70.9024 56.3118 70.9247 57.7862 71.9492C60.0307 73.5083 60.7789 73.7756 62.9354 73.7756C65.1139 73.7979 66.0161 73.486 68.1506 72.0161C69.867 70.8356 70.2411 70.702 71.9575 70.8356C73.0358 70.9024 73.4538 71.0806 74.5761 71.8824C75.3023 72.3947 76.3585 73.0183 76.9087 73.2633L77.8989 73.7088V81.2592H52.1308C34.3946 81.2592 26.2527 81.326 25.9447 81.5042C24.8884 82.061 24.9764 83.8428 26.0987 84.3551C26.4948 84.5333 34.8568 84.6001 56.7959 84.6001C89.5616 84.6001 87.8452 84.5333 88.4174 85.8251C89.0555 87.2283 88.4174 88.6315 86.965 89.0546C86.3929 89.2328 73.8499 89.2774 45.3752 89.2328L4.57763 89.166L3.93948 88.431C2.88323 87.2283 3.1693 85.5578 4.55563 84.8451C4.8857 84.6892 7.32828 84.6001 12.0814 84.6001C16.8565 84.6001 19.2991 84.511 19.6732 84.3551C20.7955 83.8428 20.8835 82.061 19.8272 81.5042C19.5852 81.3706 18.1988 81.2592 16.7465 81.2592H14.0839V73.731L14.8761 73.4638C15.3162 73.3079 16.3064 72.751 17.0986 72.1942C17.8908 71.6597 18.749 71.1251 19.013 71.0138C19.7612 70.702 21.9837 70.7688 22.6219 71.1029ZM47.9719 94.0214C47.9719 97.0728 49.1161 99.8123 51.3827 102.084C54.0233 104.757 55.4756 105.291 61.6151 105.893C63.7276 106.093 65.774 106.383 66.1261 106.539C67.5565 107.118 68.5907 108.387 68.9868 110.035L69.1408 110.659H22.8419L22.996 110.058C23.3921 108.387 24.4263 107.118 25.8566 106.539C26.2307 106.383 28.2552 106.093 30.3677 105.893C36.1991 105.336 37.7835 104.779 40.248 102.53C42.5146 100.414 43.7469 97.8078 43.9449 94.556L44.0769 92.6183H47.9719V94.0214Z" fill="black"/>
<path d="M78.251 18.2499C77.7449 18.6508 77.6788 18.8735 77.6788 20.0317V21.3458H76.4686C75.4563 21.3458 75.1483 21.4348 74.7082 21.9026C74.004 22.593 74.004 23.4394 74.7082 24.1298C75.1483 24.5976 75.4563 24.6867 76.4686 24.6867H77.6788V25.9785C77.6788 27.4039 77.9649 27.8716 79.0212 28.1389C79.4393 28.2503 79.7473 28.1389 80.2094 27.738C80.7156 27.3148 80.8476 26.9807 80.9356 25.9562L81.0236 24.6867H82.0799C83.4442 24.6867 84.2804 24.063 84.2804 23.0385C84.2804 21.9471 83.5322 21.3458 82.1459 21.3458H81.0236L80.9356 20.0762C80.8476 19.0517 80.7156 18.7176 80.2314 18.2944C79.5053 17.6708 78.9992 17.6485 78.251 18.2499Z" fill="black"/>
<path d="M4.51162 44.5093C3.76344 44.7989 3.49938 45.3111 3.36735 46.603L3.23532 47.8502H2.20107C0.83675 47.8502 0.000553379 48.4739 0.000553379 49.4984C0.000553379 50.5898 0.74873 51.1911 2.13506 51.1911H3.23532L3.36735 52.4607C3.47737 53.4852 3.63141 53.8638 4.07151 54.2425C4.77568 54.8661 5.2818 54.8884 6.00797 54.3093C6.49208 53.9307 6.60211 53.6411 6.64612 52.572L6.71213 51.3025L7.92242 51.2357C9.9689 51.1243 10.8271 49.6543 9.57281 48.407C9.1327 47.9393 8.82463 47.8502 7.81239 47.8502H6.60211V46.5584C6.60211 45.5784 6.49208 45.1552 6.22802 44.9102C5.6999 44.4425 5.03974 44.2866 4.51162 44.5093Z" fill="black"/>
</svg>

<svg width="92" height="114" fill="none" xmlns="http://www.w3.org/2000/svg"><path d="M38.796.298C34.57 1.634 32.194 6 33.316 10.41c.528 2.138 1.585 3.898 3.5 5.969l1.738 1.849h-3.741c-2.069 0-4.005.089-4.313.222-.308.112-.947.58-1.43 1.025-1.475 1.336-1.563 1.893-1.563 10.602v7.528H25.24c-1.98 0-2.42.067-3.366.557-1.189.601-1.849 1.336-2.245 2.539-.176.534-.264 3.274-.264 8.953v8.174l-2.839.09c-2.75.066-2.882.089-3.784.735-.507.356-1.167 1.113-1.453 1.648l-.506.98v19.978H7.548c-2.684 0-3.41.09-4.137.423C.683 82.93-.594 85.781.265 88.698c.176.557.704 1.359 1.386 2.072 1.87 1.937.836 1.848 21.301 1.848h17.824l-.132 1.76c-.242 3.72-2.508 6.593-5.985 7.573-.484.133-2.75.445-5.017.668-3.741.378-4.291.49-5.546 1.113-2.508 1.248-4.18 3.742-4.423 6.526-.132 1.626.286 2.539 1.497 3.297.704.445 1.166.445 24.821.445 23.656 0 24.118 0 24.822-.445 1.21-.758 1.629-1.671 1.497-3.297-.287-3.363-2.73-6.281-5.964-7.149-.484-.112-2.596-.379-4.687-.579-2.09-.201-4.225-.513-4.731-.691-3.367-1.203-5.413-3.92-5.611-7.483l-.11-1.738H69.03c20.465 0 19.43.09 21.3-1.848 2.817-2.94 1.96-7.373-1.76-9.088-.726-.334-1.452-.423-4.115-.423H81.2V61.281l-.506-.98c-.287-.535-.947-1.292-1.453-1.648-.902-.646-1.034-.669-3.785-.736l-2.838-.089V41.213L72 40.033c-.484-.958-.836-1.315-1.782-1.805-1.056-.556-1.386-.623-3.455-.623h-2.288v-7.528c0-8.709-.088-9.266-1.563-10.602-.484-.446-1.122-.913-1.43-1.025-.308-.133-2.244-.222-4.313-.222h-3.74l1.737-1.849c.947-1.025 2.047-2.472 2.421-3.207 2.62-4.945 1.277-10.134-3.212-12.384-1.32-.646-1.628-.713-3.432-.713-2.025.023-2.421.134-4.401 1.337-.66.378-.683.378-1.519-.2-1.716-1.16-4.269-1.539-6.227-.915Zm3.587 3.23c.308.133 1.034.623 1.584 1.113.792.713 1.166.891 1.848.891.947 0 2.047-.468 2.223-.958.066-.178.572-.556 1.144-.824 2.003-.98 4.445-.2 5.765 1.827.55.802.617 1.136.595 2.606 0 1.403-.11 1.915-.66 3.029-.859 1.781-3.433 4.387-5.81 5.857-1.65 1.025-1.98 1.159-3.08 1.159s-1.431-.134-3.081-1.159c-2.399-1.492-4.995-4.098-5.81-5.813-1.188-2.583-.968-4.877.638-6.503 1.255-1.292 3.17-1.782 4.644-1.225Zm18.44 18.53c.286.401.352 1.248.352 4.678 0 2.316-.044 4.187-.132 4.187-.066 0-.704-.4-1.43-.913-3.697-2.54-6.404-2.606-9.969-.267-2.86 1.87-4.049 1.87-6.777.066-3.543-2.36-6.338-2.316-10.299.112-.704.423-1.386.78-1.518.78-.176 0-.242-1.226-.242-4.077 0-3.318.066-4.165.352-4.566l.33-.49h29.003l.33.49Zm-19.65 10.647c1.958 1.314 3.278 1.782 5.038 1.782 1.76 0 2.971-.424 4.93-1.738 2.662-1.781 3.983-1.781 6.535-.022.77.512 1.827 1.114 2.377 1.337l1.012.378.132 3.163H41.788l-.528.557c-.704.69-.704 1.536 0 2.227l.528.557h13.358c12.124 0 13.4.044 13.775.378.352.312.396.735.396 3.542v3.162l-.66.156c-.352.067-1.255.557-2.025 1.047-3.455 2.272-4.665 2.294-7.856.09-1.606-1.092-3.256-1.56-5.06-1.404-1.695.156-2.553.49-4.182 1.604-2.794 1.96-4.049 1.937-6.997-.045-1.915-1.314-2.575-1.514-4.798-1.514-2.134 0-2.464.133-5.589 2.138-1.056.668-1.364.757-2.662.757-1.365 0-1.585-.067-3.323-1.136-1.012-.623-2.223-1.27-2.663-1.425l-.836-.268V44.91c0-2.628.066-3.23.374-3.563.33-.379.814-.401 6.271-.401h5.92l.528-.557c.308-.29.55-.802.55-1.114 0-.312-.242-.824-.55-1.113-.484-.513-.682-.557-2.75-.557h-2.201V34.53l.946-.378c.506-.2 1.628-.802 2.465-1.337 2.926-1.826 4.313-1.848 6.953-.111Zm-.023 19.823c3.631 2.427 6.272 2.405 9.925 0 2.684-1.805 3.85-1.782 6.69.11 1.958 1.315 3.498 1.76 5.412 1.605 1.695-.156 2.663-.513 4.512-1.715.726-.49 1.386-.891 1.474-.891.088 0 .154 1.403.154 3.118v3.118H22.666v-3.118c0-1.715.066-3.118.176-3.118.088 0 .902.467 1.804 1.002 3.631 2.227 6.36 2.25 9.617.067 1.958-1.292 2.618-1.515 3.983-1.404.968.067 1.496.29 2.904 1.226Zm36.397 9.042c.286.29.352 1.025.352 4.477v4.12l-1.078-.78c-2.003-1.47-2.839-1.78-4.864-1.892-2.398-.112-3.256.133-5.545 1.626-2.97 1.937-4.027 1.915-7.196-.179-1.892-1.27-2.596-1.492-4.643-1.492-2.068 0-2.926.29-5.105 1.737-2.728 1.782-4.005 1.782-6.711 0-2.2-1.447-3.037-1.737-5.128-1.737-2.068 0-2.926.29-5.105 1.737-2.75 1.805-4.005 1.805-6.8-.089-2.112-1.425-2.816-1.648-5.149-1.648-1.958 0-3.278.49-5.17 1.893-.573.423-1.101.78-1.19.78-.065 0-.131-1.849-.131-4.098 0-3.43.066-4.165.352-4.455.308-.312 3.477-.356 31.555-.356 28.079 0 31.248.044 31.556.356Zm-54.925 9.533c.33.178 1.254.757 2.068 1.314 1.717 1.18 3.367 1.604 5.282 1.403 1.628-.156 2.552-.557 4.445-1.87 1.474-1.025 1.54-1.048 3.19-1.048 1.695 0 1.717 0 3.521 1.203 3.61 2.406 6.338 2.406 9.947 0 1.804-1.203 1.826-1.203 3.52-1.203 1.65 0 1.717.023 3.191 1.047 2.245 1.56 2.993 1.827 5.15 1.827 2.178.022 3.08-.29 5.215-1.76 1.716-1.18 2.09-1.314 3.806-1.18 1.079.066 1.497.245 2.62 1.046.725.513 1.782 1.136 2.332 1.381l.99.446v7.55H52.13c-17.736 0-25.878.067-26.186.245-1.057.557-.969 2.339.154 2.851.396.178 8.758.245 30.697.245 32.766 0 31.05-.067 31.621 1.225.638 1.403 0 2.806-1.452 3.23-.572.178-13.115.222-41.59.178l-40.797-.067-.639-.735c-1.056-1.203-.77-2.873.617-3.586.33-.156 2.772-.245 7.525-.245 4.776 0 7.218-.089 7.592-.245 1.123-.512 1.21-2.294.154-2.85-.242-.134-1.628-.246-3.08-.246h-2.663v-7.528l.792-.267c.44-.156 1.43-.713 2.223-1.27.792-.534 1.65-1.069 1.914-1.18.748-.312 2.97-.245 3.609.089Zm25.35 22.918c0 3.052 1.144 5.791 3.41 8.063 2.641 2.673 4.094 3.207 10.233 3.809 2.113.2 4.159.49 4.511.646 1.43.579 2.465 1.848 2.86 3.496l.155.624h-46.3l.155-.601c.396-1.671 1.43-2.94 2.86-3.519.375-.156 2.4-.446 4.512-.646 5.831-.557 7.415-1.114 9.88-3.363 2.267-2.116 3.499-4.722 3.697-7.974l.132-1.938h3.895v1.403ZM78.251 18.25c-.506.4-.572.623-.572 1.782v1.314h-1.21c-1.013 0-1.32.089-1.76.557-.705.69-.705 1.536 0 2.227.44.468.747.557 1.76.557h1.21v1.291c0 1.426.286 1.894 1.342 2.16.418.112.726 0 1.188-.4.507-.423.639-.757.727-1.782l.088-1.27h1.056c1.364 0 2.2-.623 2.2-1.648 0-1.09-.748-1.692-2.134-1.692h-1.122l-.088-1.27c-.088-1.024-.22-1.358-.705-1.782-.726-.623-1.232-.646-1.98-.044ZM4.512 44.51c-.749.289-1.013.801-1.145 2.093l-.132 1.247H2.201c-1.364 0-2.2.624-2.2 1.648 0 1.092.748 1.693 2.134 1.693h1.1l.132 1.27c.11 1.024.264 1.403.705 1.782.704.623 1.21.645 1.936.066.484-.378.594-.668.638-1.737l.066-1.27 1.21-.066c2.047-.112 2.905-1.582 1.65-2.829-.44-.468-.747-.557-1.76-.557h-1.21v-1.292c0-.98-.11-1.403-.374-1.648-.528-.467-1.188-.623-1.716-.4Z" fill="#000"/></svg>
